src/shared/assets/image/calendar/9-september.svg

<svg width="24" height="24" viewBox="0 0 24 24" fill="none" xmlns="http://www.w3.org/2000/svg">
<g clip-path="url(#clip0_1_396)">
<path d="M19.5 2H18V0.5C18 0.224 17.776 0 17.5 0C17.224 0 17 0.224 17 0.5V2H7V0.5C7 0.224 6.776 0 6.5 0C6.224 0 6 0.224 6 0.5V2H4.5C2.019 2 0 4.019 0 6.5V19.5C0 21.981 2.019 24 4.5 24H5.5C5.776 24 6 23.776 6 23.5C6 23.224 5.776 23 5.5 23H4.5C2.57 23 1 21.43 1 19.5V9H23V13.5C23 13.776 23.224 14 23.5 14C23.776 14 24 13.776 24 13.5V6.5C24 4.019 21.981 2 19.5 2ZM1 8V6.5C1 4.57 2.57 3 4.5 3H19.5C21.43 3 23 4.57 23 6.5V8H1Z" fill="#474A55"/>
<path d="M7.92 22.09C7.22667 22.09 6.63333 21.9433 6.14 21.65C5.64667 21.3567 5.26667 20.94 5 20.4C4.74 19.86 4.61 19.2167 4.61 18.47C4.61 17.91 4.68333 17.41 4.83 16.97C4.98333 16.5233 5.2 16.1467 5.48 15.84C5.76667 15.5267 6.11667 15.2867 6.53 15.12C6.94333 14.9467 7.40667 14.86 7.92 14.86C8.33333 14.86 8.72667 14.92 9.1 15.04C9.47333 15.1533 9.79667 15.3233 10.07 15.55C10.1567 15.6167 10.2133 15.6933 10.24 15.78C10.2733 15.86 10.2767 15.94 10.25 16.02C10.23 16.0933 10.19 16.1567 10.13 16.21C10.0767 16.2567 10.01 16.28 9.93 16.28C9.85 16.28 9.76 16.2467 9.66 16.18C9.42 15.9867 9.15667 15.8433 8.87 15.75C8.58333 15.6567 8.27333 15.61 7.94 15.61C7.41333 15.61 6.96667 15.7233 6.6 15.95C6.23333 16.17 5.95667 16.4933 5.77 16.92C5.58333 17.3467 5.49 17.8633 5.49 18.47C5.49 19.0767 5.58333 19.5967 5.77 20.03C5.95667 20.4567 6.23333 20.7833 6.6 21.01C6.96667 21.23 7.41333 21.34 7.94 21.34C8.26667 21.34 8.57667 21.2933 8.87 21.2C9.16333 21.1 9.43333 20.9533 9.68 20.76C9.78 20.6933 9.87 20.6633 9.95 20.67C10.03 20.67 10.0967 20.6933 10.15 20.74C10.2033 20.7867 10.24 20.8467 10.26 20.92C10.2867 20.9933 10.2867 21.07 10.26 21.15C10.24 21.23 10.19 21.3 10.11 21.36C9.83 21.6 9.5 21.7833 9.12 21.91C8.74667 22.03 8.34667 22.09 7.92 22.09ZM13.6309 22.09C13.1175 22.09 12.6742 21.99 12.3009 21.79C11.9342 21.5833 11.6475 21.2933 11.4409 20.92C11.2409 20.5467 11.1409 20.1 11.1409 19.58C11.1409 19.0733 11.2409 18.6333 11.4409 18.26C11.6409 17.88 11.9142 17.5833 12.2609 17.37C12.6142 17.1567 13.0209 17.05 13.4809 17.05C13.8075 17.05 14.1009 17.1067 14.3609 17.22C14.6209 17.3267 14.8409 17.4833 15.0209 17.69C15.2075 17.8967 15.3475 18.1467 15.4409 18.44C15.5409 18.7333 15.5909 19.0633 15.5909 19.43C15.5909 19.5367 15.5609 19.6167 15.5009 19.67C15.4409 19.7167 15.3542 19.74 15.2409 19.74H11.7609V19.21H15.0509L14.8909 19.34C14.8909 18.98 14.8375 18.6767 14.7309 18.43C14.6242 18.1767 14.4675 17.9833 14.2609 17.85C14.0609 17.7167 13.8075 17.65 13.5009 17.65C13.1609 17.65 12.8709 17.73 12.6309 17.89C12.3975 18.0433 12.2209 18.26 12.1009 18.54C11.9809 18.8133 11.9209 19.1333 11.9209 19.5V19.56C11.9209 20.1733 12.0675 20.64 12.3609 20.96C12.6609 21.28 13.0842 21.44 13.6309 21.44C13.8575 21.44 14.0809 21.41 14.3009 21.35C14.5275 21.29 14.7475 21.19 14.9609 21.05C15.0542 20.99 15.1375 20.9633 15.2109 20.97C15.2909 20.97 15.3542 20.9933 15.4009 21.04C15.4475 21.08 15.4775 21.1333 15.4909 21.2C15.5109 21.26 15.5042 21.3267 15.4709 21.4C15.4442 21.4733 15.3875 21.5367 15.3009 21.59C15.0809 21.75 14.8209 21.8733 14.5209 21.96C14.2209 22.0467 13.9242 22.09 13.6309 22.09ZM17.2608 22.07C17.1274 22.07 17.0241 22.0333 16.9508 21.96C16.8841 21.8867 16.8508 21.7833 16.8508 21.65V17.48C16.8508 17.34 16.8841 17.2367 16.9508 17.17C17.0241 17.1033 17.1274 17.07 17.2608 17.07C17.3874 17.07 17.4841 17.1033 17.5508 17.17C17.6241 17.2367 17.6608 17.34 17.6608 17.48V19.16H20.3108V17.48C20.3108 17.34 20.3441 17.2367 20.4108 17.17C20.4841 17.1033 20.5841 17.07 20.7108 17.07C20.8374 17.07 20.9374 17.1033 21.0108 17.17C21.0841 17.2367 21.1208 17.34 21.1208 17.48V21.65C21.1208 21.7833 21.0841 21.8867 21.0108 21.96C20.9374 22.0333 20.8374 22.07 20.7108 22.07C20.5841 22.07 20.4841 22.0333 20.4108 21.96C20.3441 21.8867 20.3108 21.7833 20.3108 21.65V19.82H17.6608V21.65C17.6608 21.7833 17.6274 21.8867 17.5608 21.96C17.4941 22.0333 17.3941 22.07 17.2608 22.07Z" fill="#474A55"/>
</g>
<g clip-path="url(#clip1_1_396)">
<path d="M19.5 2H18V0.5C18 0.224 17.776 0 17.5 0C17.224 0 17 0.224 17 0.5V2H7V0.5C7 0.224 6.776 0 6.5 0C6.224 0 6 0.224 6 0.5V2H4.5C2.019 2 0 4.019 0 6.5V19.5C0 21.981 2.019 24 4.5 24H5.5C5.776 24 6 23.776 6 23.5C6 23.224 5.776 23 5.5 23H4.5C2.57 23 1 21.43 1 19.5V9H23V13.5C23 13.776 23.224 14 23.5 14C23.776 14 24 13.776 24 13.5V6.5C24 4.019 21.981 2 19.5 2ZM1 8V6.5C1 4.57 2.57 3 4.5 3H19.5C21.43 3 23 4.57 23 6.5V8H1Z" fill="#474A55"/>
</g>
<defs>
<clipPath id="clip0_1_396">
<rect width="24" height="24" fill="white"/>
</clipPath>
<clipPath id="clip1_1_396">
<rect width="24" height="24" fill="white"/>
</clipPath>
</defs>
</svg>

<svg width="24" height="24" fill="none" xmlns="http://www.w3.org/2000/svg"><g clip-path="url(#a)" fill="#474A55"><path d="M19.5 2H18V.5a.5.5 0 0 0-1 0V2H7V.5a.5.5 0 0 0-1 0V2H4.5A4.5 4.5 0 0 0 0 6.5v13A4.5 4.5 0 0 0 4.5 24h1a.5.5 0 0 0 0-1h-1A3.5 3.5 0 0 1 1 19.5V9h22v4.5a.5.5 0 0 0 1 0v-7A4.5 4.5 0 0 0 19.5 2ZM1 8V6.5A3.5 3.5 0 0 1 4.5 3h15A3.5 3.5 0 0 1 23 6.5V8H1Z"/><path d="M7.92 22.09c-.7 0-1.29-.15-1.78-.44-.5-.3-.87-.71-1.14-1.25a4.41 4.41 0 0 1-.39-1.93c0-.56.07-1.06.22-1.5a2.84 2.84 0 0 1 1.7-1.85 3.83 3.83 0 0 1 2.57-.08c.37.11.7.28.97.51.09.07.14.14.17.23.03.08.04.16.01.24a.39.39 0 0 1-.12.19.3.3 0 0 1-.2.07.5.5 0 0 1-.27-.1c-.24-.2-.5-.34-.79-.43a2.99 2.99 0 0 0-2.27.2c-.37.22-.64.54-.83.97-.19.43-.28.94-.28 1.55 0 .6.1 1.13.28 1.56.19.43.46.75.83.98a3.05 3.05 0 0 0 2.27.19c.3-.1.56-.25.81-.44.1-.07.19-.1.27-.09a.3.3 0 0 1 .2.07c.05.05.09.1.11.18.03.07.03.15 0 .23a.38.38 0 0 1-.15.21c-.28.24-.61.42-.99.55a3.9 3.9 0 0 1-1.2.18Zm5.71 0c-.51 0-.96-.1-1.33-.3a2.2 2.2 0 0 1-.86-.87 2.8 2.8 0 0 1-.3-1.34c0-.5.1-.95.3-1.32.2-.38.47-.68.82-.89.35-.21.76-.32 1.22-.32.33 0 .62.06.88.17.26.1.48.26.66.47.19.2.33.46.42.75.1.3.15.62.15.99 0 .1-.03.19-.09.24a.42.42 0 0 1-.26.07h-3.48v-.53h3.3l-.17.13c0-.36-.05-.66-.16-.91-.1-.25-.26-.45-.47-.58-.2-.13-.45-.2-.76-.2a1.43 1.43 0 0 0-1.4.89c-.12.27-.18.6-.18.96v.06c0 .61.15 1.08.44 1.4.3.32.72.48 1.27.48a2.54 2.54 0 0 0 1.33-.39.4.4 0 0 1 .25-.08c.08 0 .14.02.2.07.04.04.07.1.08.16.02.06.01.13-.02.2a.38.38 0 0 1-.17.19c-.22.16-.48.28-.78.37-.3.09-.6.13-.89.13Zm3.63-.02a.42.42 0 0 1-.3-.11.44.44 0 0 1-.1-.31v-4.17c0-.14.02-.24.1-.31.06-.07.17-.1.3-.1.13 0 .22.03.3.1.06.07.1.17.1.31v1.68h2.65v-1.68c0-.14.03-.24.1-.31s.17-.1.3-.1c.13 0 .23.03.3.1.07.07.11.17.11.31v4.17c0 .13-.04.24-.1.31a.4.4 0 0 1-.3.11.4.4 0 0 1-.3-.11.44.44 0 0 1-.1-.31v-1.83h-2.66v1.83c0 .13-.03.24-.1.31s-.17.11-.3.11Z"/></g><g clip-path="url(#b)"><path d="M19.5 2H18V.5a.5.5 0 0 0-1 0V2H7V.5a.5.5 0 0 0-1 0V2H4.5A4.5 4.5 0 0 0 0 6.5v13A4.5 4.5 0 0 0 4.5 24h1a.5.5 0 0 0 0-1h-1A3.5 3.5 0 0 1 1 19.5V9h22v4.5a.5.5 0 0 0 1 0v-7A4.5 4.5 0 0 0 19.5 2ZM1 8V6.5A3.5 3.5 0 0 1 4.5 3h15A3.5 3.5 0 0 1 23 6.5V8H1Z" fill="#474A55"/></g><defs><clipPath id="a"><path fill="#fff" d="M0 0h24v24H0z"/></clipPath><clipPath id="b"><path fill="#fff" d="M0 0h24v24H0z"/></clipPath></defs></svg>
